X:883
T:Gubbstöt
T:efter Pelle Fors
R:Gubbstöt
O:Vikbolandet, Östergötland
S:efter Pelle Fors
B:Låtar efter Pelle Fors
Z:Björn Ek 2009-01-01
M:3/4
L:1/8
K:G
%
|:GA BB/c/ B>A|Bc d2 d2|e>f g2 f>e|d>B G>B D2|
GA BB/c/ B>A  |Bc d2 d2|e>f g2 f>e|d>B G4:|
%
|:G>A B2 B2|!trill!B>A A>F D2|DF Ac e2   |ed cA G2|
G>A B2 B2  |!trill!B>A A>F D2|D>F A>c e>d|c>A G4 :|
%
(:musicend:)

(:music:)
